docs/assets/icons/prowiper.svg

<?xml version="1.0" encoding="UTF-8"?>
<svg version="1.1" viewBox="0 0 120 120" xmlns="http://www.w3.org/2000/svg"><defs><filter id="filter2" x="-.0318" y="-.037412" width="1.0786" height="1.0925" color-interpolation-filters="sRGB"><feFlood flood-color="rgb(0,0,0)" flood-opacity=".49804" in="SourceGraphic" result="flood"/><feGaussianBlur in="SourceGraphic" result="blur" stdDeviation="0.700000"/><feOffset dx="1.500000" dy="1.500000" in="blur" result="offset"/><feComposite in="flood" in2="offset" operator="in" result="comp1"/><feComposite in="SourceGraphic" in2="comp1" result="comp2"/></filter><filter id="filter7" x="-.090833" y="-.15571" width="1.2442" height="1.4186" color-interpolation-filters="sRGB"><feFlood flood-color="rgb(0,0,0)" flood-opacity=".49804" in="SourceGraphic" result="flood"/><feGaussianBlur in="SourceGraphic" result="blur" stdDeviation="0.700000"/><feOffset dx="1.500000" dy="1.500000" in="blur" result="offset"/><feComposite in="flood" in2="offset" operator="out" result="comp1"/><feComposite in="comp1" in2="SourceGraphic" operator="atop" result="comp2"/></filter><filter id="filter9" x="-.090833" y="-.15571" width="1.2442" height="1.4186" color-interpolation-filters="sRGB"><feFlood flood-color="rgb(0,0,0)" flood-opacity=".49804" in="SourceGraphic" result="flood"/><feGaussianBlur in="SourceGraphic" result="blur" stdDeviation="0.700000"/><feOffset dx="1.500000" dy="1.500000" in="blur" result="offset"/><feComposite in="flood" in2="offset" operator="out" result="comp1"/><feComposite in="comp1" in2="SourceGraphic" operator="atop" result="comp2"/></filter><filter id="filter11" x="-.28" y="-.28" width="1.81" height="1.81" color-interpolation-filters="sRGB"><feFlood flood-color="rgb(0,0,0)" flood-opacity=".49804" in="SourceGraphic" result="flood"/><feGaussianBlur in="SourceGraphic" result="blur" stdDeviation="0.700000"/><feOffset dx="1.500000" dy="1.500000" in="blur" result="offset"/><feComposite in="flood" in2="offset" operator="out" result="comp1"/><feComposite in="comp1" in2="SourceGraphic" operator="atop" result="comp2"/></filter><filter id="filter13" x="-.28" y="-.28" width="1.81" height="1.81" color-interpolation-filters="sRGB"><feFlood flood-color="rgb(0,0,0)" flood-opacity=".49804" in="SourceGraphic" result="flood"/><feGaussianBlur in="SourceGraphic" result="blur" stdDeviation="0.700000"/><feOffset dx="1.500000" dy="1.500000" in="blur" result="offset"/><feComposite in="flood" in2="offset" operator="out" result="comp1"/><feComposite in="comp1" in2="SourceGraphic" operator="atop" result="comp2"/></filter><filter id="filter29" x="-.05744" y="-.14359" width="1.1149" height="1.2872" color-interpolation-filters="sRGB"><feFlood flood-color="rgb(0,0,0)" flood-opacity=".49804" in="SourceGraphic" result="flood"/><feGaussianBlur in="SourceGraphic" result="blur" stdDeviation="0.500000"/><feOffset dx="-0.000000" dy="-0.000000" in="blur" result="offset"/><feComposite in="flood" in2="offset" operator="out" result="comp1"/><feComposite in="comp1" in2="SourceGraphic" operator="atop" result="comp2"/></filter><filter id="filter31" x="-.018203" y="-.15819" width="1.0364" height="1.3164" color-interpolation-filters="sRGB"><feFlood flood-color="rgb(0,0,0)" flood-opacity=".49804" in="SourceGraphic" result="flood"/><feGaussianBlur in="SourceGraphic" result="blur" stdDeviation="0.500000"/><feOffset dx="-0.000000" dy="-0.000000" in="blur" result="offset"/><feComposite in="flood" in2="offset" operator="out" result="comp1"/><feComposite in="comp1" in2="SourceGraphic" operator="atop" result="comp2"/></filter><filter id="filter33" color-interpolation-filters="sRGB"><feFlood flood-color="rgb(0,0,0)" flood-opacity=".49804" in="SourceGraphic" result="flood"/><feGaussianBlur in="SourceGraphic" result="blur" stdDeviation="0.500000"/><feOffset dx="-0.000000" dy="-0.000000" in="blur" result="offset"/><feComposite in="flood" in2="offset" operator="out" result="comp1"/><feComposite in="comp1" in2="SourceGraphic" operator="atop" result="comp2"/></filter><filter id="filter35" color-interpolation-filters="sRGB"><feFlood flood-color="rgb(0,0,0)" flood-opacity=".49804" in="SourceGraphic" result="flood"/><feGaussianBlur in="SourceGraphic" result="blur" stdDeviation="0.500000"/><feOffset dx="-0.000000" dy="-0.000000" in="blur" result="offset"/><feComposite in="flood" in2="offset" operator="out" result="comp1"/><feComposite in="comp1" in2="SourceGraphic" operator="atop" result="comp2"/></filter></defs><g><rect width="120" height="120" rx="24" fill="#0091eb"/><path d="m30 17.5h18a12 12 0 0024 0h18v13l-10 12v25l30 20v15h-100v-15l30-20v-25l-10-12z" fill="#4cae4f" filter="url(#filter2)" stroke="#4cae4f" stroke-linejoin="round" stroke-width="3"/><circle cx="39" cy="25" r="6" fill="#2e6a30" filter="url(#filter35)"/><circle cx="39" cy="25" r="3" fill="#0091eb" filter="url(#filter11)"/><circle cx="81" cy="25" r="6" fill="#2e6a30" filter="url(#filter33)"/></g><g fill="#0091eb"><circle cx="81" cy="25" r="3" filter="url(#filter13)"/><path d="m48 38 12 8 12-8v6l-12 8-12-8z" filter="url(#filter7)" stroke="#0091eb" stroke-linejoin="round"/><path d="m48 50 12 8 12-8v6l-12 8-12-8z" filter="url(#filter9)" stroke="#0091eb" stroke-linejoin="round"/></g><text transform="translate(34.336 25.125)" x="14.6875" fill="#2e6a30" filter="url(#filter29)" font-family="'Google Sans Flex'" font-size="14.667px" font-weight="600" letter-spacing="1px" stroke="#2e6a30" stroke-linecap="round" stroke-linejoin="round" stroke-width=".7" text-align="center" style="paint-order:stroke markers fill;shape-inside:url(#rect2);white-space:pre" xml:space="preserve"><tspan x="11.247965" y="59.774657">K1C</tspan></text><rect x="12.468" y="89.03" width="95.064" height="10.939" rx="2.2634" fill="#2e6b30" filter="url(#filter31)" stroke="#2e6a30" stroke-width="1.0609"/></svg>

<?xml version="1.0" encoding="UTF-8" standalone="no"?>
<svg
   viewBox="0 0 120 120"
   width="100%"
   height="100%"
   version="1.1"
   id="svg8"
   sodipodi:docname="prowiper.svg"
   inkscape:version="1.4.3 (0d15f75042, 2025-12-25)"
   xmlns:inkscape="http://www.inkscape.org/namespaces/inkscape"
   xmlns:sodipodi="http://sodipodi.sourceforge.net/DTD/sodipodi-0.dtd"
   xmlns="http://www.w3.org/2000/svg"
   xmlns:svg="http://www.w3.org/2000/svg">
  <sodipodi:namedview
     id="namedview8"
     pagecolor="#505050"
     bordercolor="#ffffff"
     borderopacity="1"
     inkscape:showpageshadow="0"
     inkscape:pageopacity="0"
     inkscape:pagecheckerboard="1"
     inkscape:deskcolor="#505050"
     inkscape:zoom="8"
     inkscape:cx="72.3125"
     inkscape:cy="62.125"
     inkscape:window-width="2560"
     inkscape:window-height="1368"
     inkscape:window-x="0"
     inkscape:window-y="0"
     inkscape:window-maximized="1"
     inkscape:current-layer="svg8" />
  <defs
     id="defs1">
    <rect
       x="8.75"
       y="46.625"
       width="33"
       height="18.125"
       id="rect2" />
    <filter
       id="shadow"
       x="-0.015"
       y="-0.017647059"
       width="1.03"
       height="1.0352941">
      <feDropShadow
         dx="2"
         dy="4"
         stdDeviation="3"
         flood-color="#000000"
         flood-opacity="0.5" />
    </filter>
    <filter
       style="color-interpolation-filters:sRGB;"
       inkscape:label="Drop Shadow"
       id="filter44"
       x="-0.053400001"
       y="-0.06282353"
       width="1.1222321"
       height="1.1432941">
      <feFlood
         result="flood"
         in="SourceGraphic"
         flood-opacity="0.498039"
         flood-color="rgb(0,0,0)"
         id="feFlood43" />
      <feGaussianBlur
         result="blur"
         in="SourceGraphic"
         stdDeviation="1.600000"
         id="feGaussianBlur43" />
      <feOffset
         result="offset"
         in="blur"
         dx="1.543210"
         dy="1.500000"
         id="feOffset43" />
      <feComposite
         result="comp1"
         operator="in"
         in="flood"
         in2="offset"
         id="feComposite43" />
      <feComposite
         result="comp2"
         operator="over"
         in="SourceGraphic"
         in2="comp1"
         id="feComposite44" />
    </filter>
    <filter
       style="color-interpolation-filters:sRGB;"
       inkscape:label="Drop Shadow"
       id="filter100"
       x="-0.28"
       y="-0.28"
       width="1.81"
       height="1.81">
      <feFlood
         result="flood"
         in="SourceGraphic"
         flood-opacity="0.498039"
         flood-color="rgb(0,0,0)"
         id="feFlood99" />
      <feGaussianBlur
         result="blur"
         in="SourceGraphic"
         stdDeviation="0.700000"
         id="feGaussianBlur99" />
      <feOffset
         result="offset"
         in="blur"
         dx="1.500000"
         dy="1.500000"
         id="feOffset99" />
      <feComposite
         result="comp1"
         operator="out"
         in="flood"
         in2="offset"
         id="feComposite99" />
      <feComposite
         result="comp2"
         operator="atop"
         in="comp1"
         in2="SourceGraphic"
         id="feComposite100" />
    </filter>
    <filter
       style="color-interpolation-filters:sRGB;"
       inkscape:label="Drop Shadow"
       id="filter102"
       x="-0.28"
       y="-0.28"
       width="1.81"
       height="1.81">
      <feFlood
         result="flood"
         in="SourceGraphic"
         flood-opacity="0.498039"
         flood-color="rgb(0,0,0)"
         id="feFlood100" />
      <feGaussianBlur
         result="blur"
         in="SourceGraphic"
         stdDeviation="0.700000"
         id="feGaussianBlur100" />
      <feOffset
         result="offset"
         in="blur"
         dx="1.500000"
         dy="1.500000"
         id="feOffset100" />
      <feComposite
         result="comp1"
         operator="out"
         in="flood"
         in2="offset"
         id="feComposite101" />
      <feComposite
         result="comp2"
         operator="atop"
         in="comp1"
         in2="SourceGraphic"
         id="feComposite102" />
    </filter>
    <filter
       style="color-interpolation-filters:sRGB;"
       inkscape:label="Drop Shadow"
       id="filter104"
       x="-0.090833332"
       y="-0.083844483"
       width="1.2441667"
       height="1.2253826">
      <feFlood
         result="flood"
         in="SourceGraphic"
         flood-opacity="0.498039"
         flood-color="rgb(0,0,0)"
         id="feFlood102" />
      <feGaussianBlur
         result="blur"
         in="SourceGraphic"
         stdDeviation="0.700000"
         id="feGaussianBlur102" />
      <feOffset
         result="offset"
         in="blur"
         dx="1.500000"
         dy="1.500000"
         id="feOffset102" />
      <feComposite
         result="comp1"
         operator="out"
         in="flood"
         in2="offset"
         id="feComposite103" />
      <feComposite
         result="comp2"
         operator="atop"
         in="comp1"
         in2="SourceGraphic"
         id="feComposite104" />
    </filter>
    <filter
       style="color-interpolation-filters:sRGB;"
       inkscape:label="Drop Shadow"
       id="filter2"
       x="-0.0318"
       y="-0.037411764"
       width="1.0786"
       height="1.0924706">
      <feFlood
         result="flood"
         in="SourceGraphic"
         flood-opacity="0.498039"
         flood-color="rgb(0,0,0)"
         id="feFlood1" />
      <feGaussianBlur
         result="blur"
         in="SourceGraphic"
         stdDeviation="0.700000"
         id="feGaussianBlur1" />
      <feOffset
         result="offset"
         in="blur"
         dx="1.500000"
         dy="1.500000"
         id="feOffset1" />
      <feComposite
         result="comp1"
         operator="in"
         in="flood"
         in2="offset"
         id="feComposite1" />
      <feComposite
         result="comp2"
         operator="over"
         in="SourceGraphic"
         in2="comp1"
         id="feComposite2" />
    </filter>
    <filter
       style="color-interpolation-filters:sRGB;"
       inkscape:label="Drop Shadow"
       id="filter7"
       x="-0.090833332"
       y="-0.15571118"
       width="1.2441667"
       height="1.4185676">
      <feFlood
         result="flood"
         in="SourceGraphic"
         flood-opacity="0.498039"
         flood-color="rgb(0,0,0)"
         id="feFlood6" />
      <feGaussianBlur
         result="blur"
         in="SourceGraphic"
         stdDeviation="0.700000"
         id="feGaussianBlur6" />
      <feOffset
         result="offset"
         in="blur"
         dx="1.500000"
         dy="1.500000"
         id="feOffset6" />
      <feComposite
         result="comp1"
         operator="out"
         in="flood"
         in2="offset"
         id="feComposite6" />
      <feComposite
         result="comp2"
         operator="atop"
         in="comp1"
         in2="SourceGraphic"
         id="feComposite7" />
    </filter>
    <filter
       style="color-interpolation-filters:sRGB;"
       inkscape:label="Drop Shadow"
       id="filter9"
       x="-0.090833332"
       y="-0.15571118"
       width="1.2441667"
       height="1.4185676">
      <feFlood
         result="flood"
         in="SourceGraphic"
         flood-opacity="0.498039"
         flood-color="rgb(0,0,0)"
         id="feFlood7" />
      <feGaussianBlur
         result="blur"
         in="SourceGraphic"
         stdDeviation="0.700000"
         id="feGaussianBlur7" />
      <feOffset
         result="offset"
         in="blur"
         dx="1.500000"
         dy="1.500000"
         id="feOffset7" />
      <feComposite
         result="comp1"
         operator="out"
         in="flood"
         in2="offset"
         id="feComposite8" />
      <feComposite
         result="comp2"
         operator="atop"
         in="comp1"
         in2="SourceGraphic"
         id="feComposite9" />
    </filter>
    <filter
       style="color-interpolation-filters:sRGB;"
       inkscape:label="Drop Shadow"
       id="filter11"
       x="-0.28"
       y="-0.28"
       width="1.81"
       height="1.81">
      <feFlood
         result="flood"
         in="SourceGraphic"
         flood-opacity="0.498039"
         flood-color="rgb(0,0,0)"
         id="feFlood9" />
      <feGaussianBlur
         result="blur"
         in="SourceGraphic"
         stdDeviation="0.700000"
         id="feGaussianBlur9" />
      <feOffset
         result="offset"
         in="blur"
         dx="1.500000"
         dy="1.500000"
         id="feOffset9" />
      <feComposite
         result="comp1"
         operator="out"
         in="flood"
         in2="offset"
         id="feComposite10" />
      <feComposite
         result="comp2"
         operator="atop"
         in="comp1"
         in2="SourceGraphic"
         id="feComposite11" />
    </filter>
    <filter
       style="color-interpolation-filters:sRGB;"
       inkscape:label="Drop Shadow"
       id="filter13"
       x="-0.28"
       y="-0.28"
       width="1.81"
       height="1.81">
      <feFlood
         result="flood"
         in="SourceGraphic"
         flood-opacity="0.498039"
         flood-color="rgb(0,0,0)"
         id="feFlood11" />
      <feGaussianBlur
         result="blur"
         in="SourceGraphic"
         stdDeviation="0.700000"
         id="feGaussianBlur11" />
      <feOffset
         result="offset"
         in="blur"
         dx="1.500000"
         dy="1.500000"
         id="feOffset11" />
      <feComposite
         result="comp1"
         operator="out"
         in="flood"
         in2="offset"
         id="feComposite12" />
      <feComposite
         result="comp2"
         operator="atop"
         in="comp1"
         in2="SourceGraphic"
         id="feComposite13" />
    </filter>
    <filter
       style="color-interpolation-filters:sRGB;"
       inkscape:label="Drop Shadow"
       id="filter29"
       x="-0.057439882"
       y="-0.14358908"
       width="1.1148798"
       height="1.2871782">
      <feFlood
         result="flood"
         in="SourceGraphic"
         flood-opacity="0.498039"
         flood-color="rgb(0,0,0)"
         id="feFlood28" />
      <feGaussianBlur
         result="blur"
         in="SourceGraphic"
         stdDeviation="0.500000"
         id="feGaussianBlur28" />
      <feOffset
         result="offset"
         in="blur"
         dx="-0.000000"
         dy="-0.000000"
         id="feOffset28" />
      <feComposite
         result="comp1"
         operator="out"
         in="flood"
         in2="offset"
         id="feComposite28" />
      <feComposite
         result="comp2"
         operator="atop"
         in="comp1"
         in2="SourceGraphic"
         id="feComposite29" />
    </filter>
    <filter
       style="color-interpolation-filters:sRGB;"
       inkscape:label="Drop Shadow"
       id="filter31"
       x="-0.018202817"
       y="-0.15818769"
       width="1.0364056"
       height="1.3163754">
      <feFlood
         result="flood"
         in="SourceGraphic"
         flood-opacity="0.498039"
         flood-color="rgb(0,0,0)"
         id="feFlood29" />
      <feGaussianBlur
         result="blur"
         in="SourceGraphic"
         stdDeviation="0.500000"
         id="feGaussianBlur29" />
      <feOffset
         result="offset"
         in="blur"
         dx="-0.000000"
         dy="-0.000000"
         id="feOffset29" />
      <feComposite
         result="comp1"
         operator="out"
         in="flood"
         in2="offset"
         id="feComposite30" />
      <feComposite
         result="comp2"
         operator="atop"
         in="comp1"
         in2="SourceGraphic"
         id="feComposite31" />
    </filter>
    <filter
       style="color-interpolation-filters:sRGB;"
       inkscape:label="Drop Shadow"
       id="filter33"
       x="-0.1"
       y="-0.1"
       width="1.2"
       height="1.2">
      <feFlood
         result="flood"
         in="SourceGraphic"
         flood-opacity="0.498039"
         flood-color="rgb(0,0,0)"
         id="feFlood31" />
      <feGaussianBlur
         result="blur"
         in="SourceGraphic"
         stdDeviation="0.500000"
         id="feGaussianBlur31" />
      <feOffset
         result="offset"
         in="blur"
         dx="-0.000000"
         dy="-0.000000"
         id="feOffset31" />
      <feComposite
         result="comp1"
         operator="out"
         in="flood"
         in2="offset"
         id="feComposite32" />
      <feComposite
         result="comp2"
         operator="atop"
         in="comp1"
         in2="SourceGraphic"
         id="feComposite33" />
    </filter>
    <filter
       style="color-interpolation-filters:sRGB;"
       inkscape:label="Drop Shadow"
       id="filter35"
       x="-0.1"
       y="-0.1"
       width="1.2"
       height="1.2">
      <feFlood
         result="flood"
         in="SourceGraphic"
         flood-opacity="0.498039"
         flood-color="rgb(0,0,0)"
         id="feFlood33" />
      <feGaussianBlur
         result="blur"
         in="SourceGraphic"
         stdDeviation="0.500000"
         id="feGaussianBlur33" />
      <feOffset
         result="offset"
         in="blur"
         dx="-0.000000"
         dy="-0.000000"
         id="feOffset33" />
      <feComposite
         result="comp1"
         operator="out"
         in="flood"
         in2="offset"
         id="feComposite34" />
      <feComposite
         result="comp2"
         operator="atop"
         in="comp1"
         in2="SourceGraphic"
         id="feComposite35" />
    </filter>
  </defs>
  <rect
     width="120"
     height="120"
     rx="24"
     fill="#111827"
     id="rect1"
     style="fill:#0091eb;fill-opacity:1" />
  <path
     d="m 30,17.5 h 18 a 12,12 0 0 0 24,0 h 18 v 13 l -10,12 v 25 l 30,20 v 15 H 10 v -15 l 30,-20 v -25 l -10,-12 z"
     fill="#33b300"
     stroke="#33b300"
     stroke-width="3"
     stroke-linejoin="round"
     id="path1-7"
     style="fill:#4cae4f;fill-opacity:1;stroke:#4cae4f;stroke-opacity:1;filter:url(#filter2)" />
  <circle
     cx="39"
     cy="25"
     r="6"
     fill="#1D6600"
     id="circle1"
     style="fill:#2e6a30;fill-opacity:1;filter:url(#filter35)" />
  <circle
     cx="39"
     cy="25"
     r="3"
     fill="#111827"
     id="circle2"
     style="fill:#0091eb;fill-opacity:1;filter:url(#filter11)" />
  <circle
     cx="81"
     cy="25"
     r="6"
     fill="#1D6600"
     id="circle3"
     style="stroke:none;stroke-opacity:1;fill:#2e6a30;fill-opacity:1;filter:url(#filter33)" />
  <circle
     cx="81"
     cy="25"
     r="3"
     fill="#111827"
     id="circle4"
     style="fill:#0091eb;fill-opacity:1;filter:url(#filter13)" />
  <path
     d="M 48 38 L 60 46 L 72 38 L 72 44 L 60 52 L 48 44 Z"
     stroke="#111827"
     stroke-width="1"
     stroke-linejoin="round"
     id="path4"
     style="fill:#0091eb;fill-opacity:1;stroke:#0091eb;stroke-opacity:1;filter:url(#filter7)" />
  <path
     d="M 48 50 L 60 58 L 72 50 L 72 56 L 60 64 L 48 56 Z"
     stroke="#111827"
     stroke-width="1"
     stroke-linejoin="round"
     id="path5"
     style="fill:#0091eb;fill-opacity:1;stroke:#0091eb;stroke-opacity:1;filter:url(#filter9)" />
  <text
     xml:space="preserve"
     id="text1"
     style="font-weight:600;font-size:14.6667px;font-family:'Google Sans Flex';-inkscape-font-specification:'Google Sans Flex Semi-Bold';text-align:center;letter-spacing:1px;writing-mode:lr-tb;direction:ltr;white-space:pre;shape-inside:url(#rect2);display:inline;fill:#2e6a30;fill-opacity:1;fill-rule:nonzero;stroke:#2e6a30;stroke-width:0.7;stroke-linecap:round;stroke-linejoin:round;stroke-opacity:1;paint-order:stroke markers fill;filter:url(#filter29)"
     transform="translate(34.33567,25.125)"
     x="14.6875"
     y="0"><tspan
       x="11.247965"
       y="59.774657"
       id="tspan2">K1C</tspan></text>
  <rect
     x="12.467934"
     y="89.030441"
     width="95.064133"
     height="10.939126"
     rx="2.2634318"
     fill="#1d6600"
     stroke="#1d6600"
     stroke-width="1.06087"
     id="rect8"
     style="fill:#2e6b30;fill-opacity:1;stroke:#2e6a30;stroke-opacity:1;filter:url(#filter31)" />
</svg>
